X: 498
T: Tan qinglang
L: 1/8
M: 4/4
K: Bb
c'2c' d'2<f2g [I:setbarnb 1]| 
c'2c' d'c'4 | 
e'2>f'2c'2c' g | 
f g f ef2z2 | 
c' c' g b b e' c' b | 
g2b g f ec2 | 
f f d c B c f d | 
c c c Bc2z2 |]

@@@ Tune index: 9372
